X:0450
T:Let that stand there.
M:C
L:1/8
Q:1/2=100
I: :: ||
Z:Jack Campin * www.campin.me.uk * 2009
K:D
(B/c/)|dABG  AFDE|FGAB =c3B/^c/|dABG        AFDD       | dfec d3:|
 A    |dfed =cBAG|FGAB =c3B/c/ |dABG        AFDD       | defc d3
 A    |dfed =cBAG|FGAB =c3B/c/ |dB/d/ cA/c/ BG/B/ AF/D/| dfec d3|]

